X: 351
T: Richer's Hornpipe
%R: reel, hornpipe
Z: 2014 John Chambers <jc:trillian.mit.edu>
B: Preston "Twenty four Country Dances for the Year 1798" p.156 #1
F: http://www.vwml.org/browse/browse-collections-dance-tune-books/browse-prestons1798# 2014-8-10
M: C|
L: 1/8
K: Bb
de |\
fdfd B2cd | cAcA F2ED | EFGA Bcde | cAFA c2de |
fdfd B2cd | cAcA F2ED | E2g2 fdec | B2B2 B2 :|
|: Bc |\
dBcA G2ef | g2c2 c2AB | cABG F2de | f2B2 B2F2 |
GABG FDFD | GABG FDFD | E2g2 fdec | B2B2 B2 :|
% - - - - - - - - - - - - - - - - - - - - - - - - -
%%begintext align
%% Sett & hands 6 half round .| Sett & hands 6 back
%% again :| 1st 2d & 3d Cu.s Le Promenade quite
%% round :|. Le Poussette with the 2d Cu: :|:
%%endtext
% - - - - - - - - - - - - - - - - - - - - - - - - -

%%sep 1 1 500
%%sep 1 1 500
